packages/kaspersky-hexa-ui-icons/src/iconsSVGs/16/GosuslugiColor.svg

<svg width="16" height="16" viewBox="0 0 16 16" fill="none" xmlns="http://www.w3.org/2000/svg">
<path d="M6.85181 8.15411H5.44844C5.43412 8.15411 5.42696 8.16126 5.4198 8.17557C5.384 8.81228 5.26227 9.49192 5.09043 10.0499C5.09043 10.0571 5.09043 10.0642 5.09759 10.0714C5.10475 10.0786 5.11191 10.0786 5.11907 10.0786H5.5988C5.61312 10.0786 5.62028 10.0714 5.62028 10.0642C5.75632 9.635 5.86372 9.07698 5.90668 8.60482H6.36493V10.0571C6.36493 10.0714 6.37925 10.0857 6.39357 10.0857H6.85181C6.86613 10.0857 6.88046 10.0714 6.88046 10.0571V8.17557C6.88046 8.16126 6.86613 8.15411 6.85181 8.15411ZM12.7875 8.15411H12.3293C12.315 8.15411 12.3006 8.16842 12.3006 8.18273V9.635C12.2004 9.66362 12.1002 9.67793 11.9856 9.67793C11.6849 9.67793 11.6133 9.58492 11.6133 9.1843V8.18273C11.6133 8.16842 11.599 8.15411 11.5846 8.15411H11.1335C11.1192 8.15411 11.1049 8.16842 11.1049 8.18273V9.23437C11.1049 9.89255 11.3269 10.1429 11.8925 10.1429C12.2147 10.1429 12.5799 10.0571 12.7947 9.9784C12.8018 9.97124 12.809 9.96409 12.809 9.95693V8.18273C12.8162 8.16126 12.8019 8.15411 12.7875 8.15411ZM3.07845 8.15411H2.61304C2.59872 8.15411 2.59156 8.16126 2.59156 8.17557C2.51996 8.46173 2.3696 8.94821 2.16912 9.45615L1.70371 8.17557C1.69655 8.16842 1.68939 8.16126 1.68223 8.16126H1.20966C1.2025 8.16126 1.19534 8.16842 1.18818 8.17557C1.18102 8.18273 1.18102 8.18988 1.18818 8.19703L1.88987 10.1143C1.81827 10.2646 1.75383 10.3862 1.68939 10.5006C1.63927 10.5865 1.59631 10.6723 1.55335 10.7582C1.54619 10.7653 1.54619 10.7725 1.55335 10.7797C1.56051 10.7868 1.56767 10.794 1.57483 10.794H2.0832C2.09036 10.794 2.10468 10.7868 2.10468 10.7797C2.1906 10.6151 2.298 10.3862 2.39824 10.1501C2.69896 9.449 2.93525 8.79082 3.11425 8.18988C3.11425 8.18273 3.11425 8.17557 3.10709 8.16842C3.09277 8.15411 3.08561 8.15411 3.07845 8.15411ZM4.74675 9.635C4.74675 9.62785 4.73959 9.62069 4.73243 9.62069H4.71095C4.59639 9.66362 4.38874 9.69223 4.24554 9.69223C3.92334 9.69223 3.77298 9.60638 3.77298 9.11991C3.77298 8.72643 3.8231 8.54758 4.24554 8.54758C4.36726 8.54758 4.47466 8.56189 4.61787 8.60482C4.63219 8.60482 4.63935 8.60482 4.64651 8.59051C4.69663 8.49035 4.76107 8.36873 4.83267 8.2185V8.19703C4.83267 8.18988 4.82551 8.18273 4.81835 8.18273C4.63219 8.12549 4.41022 8.08972 4.20974 8.08972C3.54385 8.08972 3.24313 8.4045 3.24313 9.11275C3.24313 9.82816 3.54385 10.1501 4.20974 10.1501C4.37442 10.1501 4.71095 10.1143 4.86847 10.0499C4.88279 10.0428 4.88995 10.0285 4.88279 10.0142L4.74675 9.635ZM9.10724 8.15411H8.64184C8.62752 8.15411 8.62036 8.16126 8.62036 8.17557C8.54876 8.46889 8.39839 8.94821 8.19791 9.45615L7.73251 8.17557C7.72535 8.16842 7.71819 8.16126 7.71103 8.16126H7.23846C7.2313 8.16126 7.22414 8.16842 7.21698 8.17557C7.20982 8.18273 7.20982 8.18988 7.21698 8.19703L7.91867 10.1143C7.84707 10.2646 7.78263 10.3862 7.71819 10.5006C7.66806 10.5865 7.6251 10.6723 7.58214 10.7653C7.57498 10.7725 7.57498 10.7797 7.58214 10.7868C7.5893 10.794 7.59646 10.8011 7.60362 10.8011H8.11199C8.11915 10.8011 8.13347 10.794 8.13347 10.7868C8.21939 10.6223 8.32679 10.3933 8.42703 10.1572C8.7206 9.45615 8.96404 8.79798 9.14304 8.19703C9.14304 8.18988 9.14304 8.18273 9.13588 8.17557C9.12156 8.15411 9.1144 8.15411 9.10724 8.15411ZM10.8257 8.15411H9.47241C9.45809 8.15411 9.44377 8.16842 9.44377 8.18273V10.0642C9.44377 10.0786 9.45809 10.0929 9.47241 10.0929H9.93065C9.94497 10.0929 9.95929 10.0786 9.95929 10.0642V8.61197H10.6681C10.6753 8.61197 10.6896 8.60482 10.6896 8.59766C10.7469 8.46889 10.797 8.33296 10.8543 8.19703V8.17557C10.84 8.15411 10.8328 8.15411 10.8257 8.15411Z" fill="#EF4058"/>
<path d="M3.62274 5.26374C2.96401 5.26374 2.70625 5.54991 2.70625 6.27247C2.70625 7.00934 2.96401 7.2955 3.62274 7.2955C4.28863 7.2955 4.54639 7.00934 4.54639 6.27247C4.54639 5.54275 4.28863 5.26374 3.62274 5.26374ZM3.62274 6.87341C3.32202 6.87341 3.22894 6.79471 3.22894 6.27962C3.22894 5.73591 3.32918 5.68583 3.62274 5.68583C3.92347 5.68583 4.02371 5.73591 4.02371 6.27962C4.02371 6.79471 3.93063 6.87341 3.62274 6.87341ZM6.37938 6.79471C6.37938 6.78756 6.37222 6.78041 6.36506 6.78041H6.34358C6.22901 6.82333 6.02137 6.85195 5.87817 6.85195C5.55597 6.85195 5.4056 6.7661 5.4056 6.27962C5.4056 5.88615 5.45572 5.7073 5.87817 5.7073C5.99989 5.7073 6.10729 5.7216 6.25049 5.76453C6.26482 5.76453 6.27198 5.76453 6.27914 5.75022C6.32926 5.65006 6.3937 5.52844 6.4653 5.37821V5.35675C6.4653 5.34959 6.45814 5.34244 6.45098 5.34244C6.26481 5.28521 6.04285 5.24944 5.84237 5.24944C5.17648 5.24944 4.87576 5.56422 4.87576 6.27247C4.87576 6.98787 5.17648 7.30981 5.84237 7.30981C6.00705 7.30981 6.34358 7.27404 6.5011 7.20965C6.51542 7.2025 6.52258 7.18819 6.51542 7.17388L6.37938 6.79471ZM2.56305 5.31382H1.20979C1.19547 5.31382 1.18115 5.32813 1.18115 5.34244V7.22396C1.18115 7.23827 1.19547 7.25257 1.20979 7.25257H1.66804C1.68236 7.25257 1.69668 7.23827 1.69668 7.22396V5.76453H2.39837C2.40553 5.76453 2.41985 5.75737 2.41985 5.75022C2.47713 5.62145 2.52725 5.48552 2.58453 5.34959V5.32813C2.57737 5.32098 2.57021 5.31382 2.56305 5.31382Z" fill="#1466AC"/>
<path d="M14.9283 9.88546V9.85684C14.9283 9.84253 14.9283 9.82107 14.9354 9.80676C14.9569 9.54206 14.9712 9.22013 14.9855 8.84812V8.8195C14.9927 8.56911 14.9999 8.29725 14.9999 8.01824C14.9999 7.73924 14.9927 7.46738 14.9855 7.21699V7.18837C14.9712 6.82352 14.9569 6.49443 14.9354 6.22973C14.9354 6.21542 14.9354 6.19396 14.9283 6.17965V6.15103C14.9283 6.12242 14.9211 6.10096 14.9211 6.07234V6.04372C14.8996 5.76471 14.8853 5.59302 14.8781 5.57871C14.8781 5.55009 14.871 5.52148 14.871 5.50001V5.47855C14.8638 5.42847 14.8567 5.38555 14.8423 5.33547C14.8423 5.32832 14.8423 5.32116 14.8352 5.31401C14.7135 4.73453 14.3913 4.09782 13.9903 3.61849C13.8328 3.43249 13.6681 3.26795 13.4962 3.13917C13.4819 3.12486 13.2814 2.98178 12.9664 2.76001C12.6012 2.50962 12.0785 2.15907 11.4843 1.81567C10.4246 1.19327 9.48659 0.756869 9.35771 0.706791C9.35055 0.706791 9.35055 0.699637 9.35055 0.699637C9.07131 0.578018 8.73478 0.492169 8.36962 0.456399C8.29802 0.449245 8.22642 0.442091 8.15482 0.442091C8.08322 0.434937 8.01877 0.434937 7.95433 0.434937H7.85409C7.36721 0.449245 6.91612 0.535093 6.55812 0.699637C6.508 0.721099 5.5557 1.1575 4.47453 1.79421L4.43157 1.81567C3.32176 2.46669 2.45539 3.11056 2.41959 3.13917C2.1475 3.33949 1.90406 3.59703 1.6821 3.92612C1.63198 3.99766 1.63198 4.18367 1.84678 4.18367H2.39811C2.63439 4.18367 2.69167 4.04058 2.95659 3.84742C3.25016 3.6328 3.83012 3.20356 4.88982 2.574C5.65595 2.1233 6.37195 1.76559 6.7228 1.60105C6.72996 1.60105 6.73712 1.59389 6.74428 1.59389C6.74428 1.59389 6.75144 1.59389 6.75144 1.58674C6.75144 1.58674 6.7586 1.58674 6.7586 1.57959C6.76576 1.57959 6.77292 1.57243 6.77292 1.57243C6.78008 1.57243 6.78724 1.56528 6.7944 1.56528C6.88032 1.52235 6.9376 1.50089 6.9376 1.50089C7.18104 1.39358 7.52473 1.32204 7.88989 1.31489H8.03309C8.1405 1.31489 8.2479 1.32204 8.34814 1.33635C8.5701 1.36496 8.77058 1.40789 8.93527 1.47943C8.94959 1.48658 8.97107 1.49374 8.98539 1.50089C8.98539 1.50089 8.99255 1.50805 9.01403 1.5152C9.17871 1.58674 10.0666 2.00883 11.0332 2.574C11.606 2.91024 12.1143 3.24648 12.4652 3.48972C12.7731 3.70434 12.9592 3.84027 12.9664 3.84742C13.1024 3.94758 13.2385 4.09066 13.3674 4.24805C13.6896 4.66299 13.9545 5.22816 13.9974 5.66456C13.9974 5.67171 14.0189 5.84341 14.0404 6.13673C14.0404 6.15819 14.0404 6.1725 14.0476 6.19396V6.23688C14.0476 6.2655 14.0547 6.28696 14.0547 6.31558V6.34419C14.0547 6.3585 14.0547 6.37996 14.0619 6.39427C14.0619 6.43004 14.069 6.46581 14.069 6.50158C14.069 6.52305 14.069 6.54451 14.0762 6.56597V6.58028C14.0762 6.60889 14.0762 6.63036 14.0834 6.65897V6.7162C14.1048 7.08822 14.1192 7.53177 14.1192 7.99678C14.1192 8.4618 14.1048 8.90535 14.0834 9.27736V9.33459C14.0834 9.36321 14.0834 9.38467 14.0762 9.41329V9.42759C14.0762 9.44906 14.0762 9.47052 14.069 9.49198C14.069 9.52775 14.0619 9.56352 14.0619 9.59929C14.0619 9.62076 14.0619 9.63506 14.0547 9.64937V9.67799C14.0547 9.7066 14.0476 9.72807 14.0476 9.75668V9.79961C14.0476 9.82107 14.0476 9.84253 14.0404 9.85684C14.0189 10.1502 13.9974 10.329 13.9974 10.329C13.9545 10.7654 13.6896 11.3306 13.3674 11.7455C13.2385 11.9101 13.1024 12.046 12.9664 12.1461C12.9592 12.1461 12.7731 12.2892 12.4652 12.5038C12.1143 12.7471 11.5988 13.0833 11.0332 13.4196C10.0666 13.9919 9.17155 14.4068 9.01403 14.4784L8.98539 14.4927C8.97107 14.4998 8.94959 14.507 8.93527 14.5141C8.77058 14.5785 8.5701 14.6286 8.34814 14.6572C8.2479 14.6715 8.1405 14.6787 8.03309 14.6787H7.88989C7.52473 14.6715 7.18104 14.6071 6.9376 14.4927C6.9376 14.4927 6.88748 14.4712 6.7944 14.4283C6.78724 14.4211 6.77292 14.4211 6.76576 14.414C6.7586 14.4068 6.75144 14.4068 6.74428 14.3997C6.73712 14.3997 6.73712 14.3925 6.72996 14.3925C6.7228 14.3925 6.71564 14.3854 6.70848 14.3854C6.70132 14.3782 6.69416 14.3782 6.67984 14.3711H6.67268C6.30751 14.228 5.62014 13.8846 4.88982 13.4553C3.82296 12.8329 3.25016 12.3965 2.95659 12.1819C2.69167 11.9887 2.63439 11.8457 2.39811 11.8457H1.84678C1.63198 11.8457 1.63198 12.0317 1.6821 12.1032C1.90406 12.4323 2.1475 12.6898 2.41959 12.8902C2.45539 12.9188 3.32892 13.5626 4.43157 14.2137C4.48885 14.2494 4.54613 14.2852 4.61057 14.3138C5.63447 14.9005 6.51516 15.3011 6.56528 15.3297C6.91612 15.4871 7.37437 15.5801 7.86125 15.5944H7.96149C8.02593 15.5944 8.09038 15.5944 8.15482 15.5872C8.22642 15.5872 8.29802 15.5801 8.36962 15.5729C8.73478 15.5372 9.07847 15.4513 9.35055 15.3297C9.35055 15.3297 9.35771 15.3297 9.35771 15.3225C9.47943 15.2653 10.4246 14.8289 11.4771 14.2137C12.0714 13.8631 12.5941 13.5197 12.9592 13.2693C13.2743 13.0476 13.4748 12.9045 13.4891 12.8902C13.6609 12.7614 13.8256 12.5968 13.9831 12.4108C14.3841 11.9315 14.7063 11.2948 14.828 10.7153C14.828 10.7082 14.828 10.701 14.8352 10.6939C14.8423 10.6438 14.8567 10.5937 14.8638 10.5508V10.5293C14.871 10.5007 14.871 10.4721 14.871 10.4506C14.871 10.4363 14.8925 10.2646 14.9139 9.98561V9.957C14.9283 9.93553 14.9283 9.91407 14.9283 9.88546Z" fill="url(#paint0_linear_21793_2507)"/>
<defs>
<linearGradient id="paint0_linear_21793_2507" x1="8.32711" y1="0.434937" x2="8.32711" y2="15.6075" gradientUnits="userSpaceOnUse">
<stop offset="0.398" stop-color="#1466AC"/>
<stop offset="0.659" stop-color="#EF4058"/>
</linearGradient>
</defs>
</svg>

<svg xmlns="http://www.w3.org/2000/svg" width="16" height="16" fill="none" viewBox="0 0 16 16"><path fill="#ef4058" d="M6.8518 8.1541H5.4484c-.0143 0-.0214.0072-.0286.0215-.0358.6367-.1575 1.3163-.3294 1.8743 0 .0072 0 .0143.0072.0215s.0143.0072.0215.0072h.4797c.0143 0 .0215-.0072.0215-.0144.136-.4292.2434-.9872.2864-1.4594h.4582v1.4523c0 .0143.0144.0286.0287.0286h.4582c.0143 0 .0287-.0143.0287-.0286V8.1756c0-.0143-.0144-.0215-.0287-.0215m5.9357 0h-.4582c-.0143 0-.0287.0143-.0287.0286V9.635a1.12 1.12 0 0 1-.315.043c-.3007 0-.3723-.093-.3723-.4937V8.1827a.031.031 0 0 0-.0287-.0286h-.4511a.031.031 0 0 0-.0286.0286v1.0517c0 .6581.222.9085.7876.9085.3222 0 .6874-.0858.9022-.1645.0071-.0072.0143-.0143.0143-.0215V8.1827c.0072-.0214-.0071-.0286-.0215-.0286m-9.709 0H2.613q-.0214 0-.0214.0215c-.0716.2861-.222.7726-.4225 1.2805l-.4654-1.2805c-.0071-.0072-.0143-.0143-.0215-.0143h-.4725c-.0072 0-.0144.0071-.0215.0143q-.0108.0107 0 .0214l.7017 1.9173a6.2 6.2 0 0 1-.2005.3863c-.0501.0859-.093.1717-.136.2576q-.0108.0107 0 .0215c.0071.0071.0143.0143.0214.0143h.5084c.0072 0 .0215-.0072.0215-.0143.0859-.1646.1933-.3935.2935-.6296.3008-.7011.537-1.3593.716-1.9602 0-.0072 0-.0143-.0071-.0215-.0143-.0143-.0215-.0143-.0286-.0143M4.7467 9.635a.0154.0154 0 0 0-.0143-.0143H4.711c-.1146.043-.3223.0715-.4655.0715-.3222 0-.4725-.0858-.4725-.5723 0-.3935.0501-.5723.4725-.5723.1218 0 .2292.0143.3724.0572.0143 0 .0215 0 .0286-.0143.0501-.1002.1146-.2218.1862-.372V8.197a.0154.0154 0 0 0-.0144-.0143c-.1861-.0572-.408-.093-.6086-.093-.6658 0-.9666.3148-.9666 1.023 0 .7155.3007 1.0374.9666 1.0374.1647 0 .5013-.0358.6588-.1002.0143-.0071.0214-.0214.0143-.0357zm4.3605-1.4809h-.4654q-.0214 0-.0214.0215c-.0716.2933-.222.7726-.4225 1.2805l-.4654-1.2805c-.0072-.0072-.0143-.0143-.0215-.0143h-.4725c-.0072 0-.0144.0071-.0215.0143q-.0108.0107 0 .0214l.7017 1.9173a6.2 6.2 0 0 1-.2005.3863 3 3 0 0 0-.136.2647q-.0108.0108 0 .0215c.0071.0072.0143.0143.0214.0143h.5084c.0071 0 .0215-.0071.0215-.0143.0859-.1645.1933-.3935.2935-.6296.2936-.701.537-1.3592.716-1.9602 0-.0071 0-.0143-.0071-.0214-.0143-.0215-.0215-.0215-.0287-.0215m1.7185 0H9.4724a.031.031 0 0 0-.0286.0286v1.8815c0 .0144.0143.0287.0286.0287h.4582a.031.031 0 0 0 .0287-.0287V8.612h.7088c.0072 0 .0215-.0072.0215-.0143.0573-.1288.1074-.2647.1647-.4007v-.0214c-.0143-.0215-.0215-.0215-.0286-.0215"/><path fill="#1466ac" d="M3.6227 5.2637c-.6587 0-.9165.2862-.9165 1.0088 0 .7368.2578 1.023.9165 1.023.666 0 .9237-.2862.9237-1.023 0-.7298-.2578-1.0088-.9237-1.0088m0 1.6097c-.3007 0-.3938-.0787-.3938-.5938 0-.5437.1003-.5938.3938-.5938.3008 0 .401.0501.401.5938 0 .5151-.093.5938-.401.5938m2.7567-.0787a.0154.0154 0 0 0-.0143-.0143h-.0215c-.1146.043-.3222.0716-.4654.0716-.3222 0-.4726-.0859-.4726-.5724 0-.3935.0501-.5723.4726-.5723.1217 0 .229.0143.3723.0572.0143 0 .0215 0 .0286-.0143.0502-.1001.1146-.2218.1862-.372v-.0214a.0154.0154 0 0 0-.0143-.0144c-.1862-.0572-.4081-.093-.6086-.093-.666 0-.9666.3148-.9666 1.023 0 .7155.3007 1.0374.9666 1.0374.1646 0 .5012-.0358.6587-.1002.0143-.0071.0215-.0214.0143-.0357zM2.563 5.3138H1.2098a.031.031 0 0 0-.0287.0286V7.224c0 .0143.0144.0286.0287.0286h.4582a.031.031 0 0 0 .0287-.0286V5.7645h.7017c.0071 0 .0214-.0071.0214-.0143.0573-.1288.1075-.2647.1647-.4006V5.328c-.0071-.0071-.0143-.0143-.0214-.0143"/><path fill="url(#a)" d="M14.9283 9.8855v-.0287c0-.0143 0-.0357.0071-.05.0215-.2647.0358-.5867.0501-.9587v-.0286c.0072-.2504.0144-.5222.0144-.8013s-.0072-.5508-.0144-.8012v-.0286c-.0143-.3649-.0286-.694-.0501-.9587 0-.0143 0-.0357-.0071-.05V6.151c0-.0286-.0072-.05-.0072-.0787v-.0286c-.0215-.279-.0358-.4507-.043-.465 0-.0286-.0071-.0572-.0071-.0787v-.0214a1 1 0 0 0-.0287-.1431c0-.0072 0-.0143-.0071-.0215-.1217-.5795-.4439-1.2162-.8449-1.6955-.1575-.186-.3222-.3506-.4941-.4793-.0143-.0143-.2148-.1574-.5298-.3792-.3652-.2504-.8879-.601-1.4821-.9443C10.4246 1.1933 9.4866.7569 9.3577.7067c-.0071 0-.0071-.007-.0071-.007-.2793-.1217-.6158-.2075-.981-.2433C8.298.4492 8.2264.4421 8.1548.4421c-.0716-.0072-.136-.0072-.2005-.0072h-.1002c-.4869.0143-.938.1002-1.296.2647-.0501.0215-1.0024.4579-2.0836 1.0946l-.043.0215c-1.1097.651-1.9761 1.2949-2.012 1.3235-.272.2003-.5154.4578-.7374.787-.0501.0715-.0501.2575.1647.2575h.5513c.2363 0 .2936-.1431.5585-.3363.2936-.2146.8735-.6438 1.9332-1.2734.7661-.4507 1.4821-.8084 1.833-.973.0072 0 .0143-.0071.0215-.0071 0 0 .0071 0 .0071-.0072 0 0 .0072 0 .0072-.0071.0072 0 .0143-.0072.0143-.0072.0072 0 .0143-.0071.0215-.0071.086-.043.1432-.0644.1432-.0644.2434-.1073.5871-.1789.9523-.186h.1432c.1074 0 .2148.0071.315.0214.222.0287.4225.0716.5872.1431.0143.0072.0358.0143.05.0215 0 0 .0072.0071.0287.0143.1647.0715 1.0526.4936 2.0192 1.0588a23 23 0 0 1 1.432.9157c.3079.2146.494.3506.5012.3577.136.1002.2721.2433.401.4007.3222.4149.5871.98.63 1.4165 0 .0071.0215.1788.043.4721 0 .0215 0 .0358.0072.0573v.0429c0 .0286.0071.05.0071.0787v.0286c0 .0143 0 .0358.0072.05 0 .0358.0071.0716.0071.1074 0 .0214 0 .043.0072.0644v.0143c0 .0286 0 .05.0072.0787v.0572c.0214.372.0358.8156.0358 1.2806s-.0144.9086-.0358 1.2806v.0572c0 .0286 0 .05-.0072.0787v.0143c0 .0215 0 .043-.0072.0644 0 .0357-.0071.0715-.0071.1073 0 .0215 0 .0358-.0072.05v.0287c0 .0286-.0071.05-.0071.0787v.043c0 .0214 0 .0428-.0072.0571-.0215.2934-.043.4722-.043.4722-.0429.4364-.3078 1.0016-.63 1.4165-.1289.1646-.265.3005-.401.4006-.0072 0-.1933.1431-.5012.3577-.3509.2433-.8664.5795-1.432.9158-.9666.5723-1.8617.9872-2.0192 1.0588l-.0286.0143c-.0143.0071-.0358.0143-.0501.0214-.1647.0644-.3652.1145-.5872.1431a2.3 2.3 0 0 1-.315.0215h-.1432c-.3652-.0072-.7089-.0716-.9523-.186 0 0-.0501-.0215-.1432-.0644-.0072-.0072-.0215-.0072-.0286-.0143s-.0144-.0072-.0215-.0143c-.0072 0-.0072-.0072-.0143-.0072s-.0144-.0071-.0215-.0071c-.0072-.0072-.0143-.0072-.0287-.0143h-.0071c-.3652-.1431-1.0526-.4865-1.7829-.9158-1.0668-.6224-1.6396-1.0588-1.9332-1.2734-.265-.1932-.3222-.3362-.5585-.3362h-.5513c-.2148 0-.2148.186-.1647.2575.222.3291.4654.5866.7375.787.0358.0286.9093.6724 2.012 1.3235.0572.0357.1145.0715.179.1001 1.0239.5867 1.9046.9873 1.9547 1.0159.3508.1574.809.2504 1.296.2647h.1002c.0644 0 .1289 0 .1933-.0072.0716 0 .1432-.0071.2148-.0143.3652-.0357.7089-.1216.981-.2432 0 0 .0071 0 .0071-.0072.1217-.0572 1.0669-.4936 2.1194-1.1088a26.3 26.3 0 0 0 1.4821-.9444c.3151-.2217.5156-.3648.5299-.3791.1718-.1288.3365-.2934.494-.4794.401-.4793.7232-1.116.8449-1.6955 0-.0071 0-.0143.0072-.0214.0071-.0501.0215-.1002.0286-.1431v-.0215c.0072-.0286.0072-.0572.0072-.0787 0-.0143.0215-.186.0429-.465V9.957c.0144-.0215.0144-.043.0144-.0715"/><defs><linearGradient id="a" x1="8" x2="8" y1="0" y2="16" gradientUnits="userSpaceOnUse"><stop offset="0" stop-color="#1466ac"/><stop offset="1" stop-color="#ef4058"/></linearGradient></defs></svg>
